X: 28140
T: Mrs Dwyer's
R: hornpipe
M: 4/4
K: Gmixolydian
DGGA B2 c2|dedc A2 c2|dGGA AGFA|GcAG FDCF|
DGGA B2 c2|dedc A2 c2|dGGc AGFA|G2 GF G2 z2:|
dggf d2 c2|dggf d2 c2|dggA AGFA|GcAG FDCF|
DGGA B2 c2|dedc A2 c2|dGGc AGFA|G2 GF G2 z2:|

